Papirus/64x64/apps/com.adrienplazas.Metronome.svg

<?xml version="1.0" encoding="UTF-8" standalone="no"?>
<svg
   id="_图层_1"
   version="1.1"
   viewBox="0 0 64 64" width="64" height="64"
   sodipodi:docname="com.adrienplazas.Metronome.svg"
   xml:space="preserve"
   inkscape:version="1.4 (e7c3feb100, 2024-10-09)"
   xmlns:inkscape="http://www.inkscape.org/namespaces/inkscape"
   xmlns:sodipodi="http://sodipodi.sourceforge.net/DTD/sodipodi-0.dtd"
   xmlns="http://www.w3.org/2000/svg"
   xmlns:svg="http://www.w3.org/2000/svg"><sodipodi:namedview
     id="namedview26"
     pagecolor="#505050"
     bordercolor="#eeeeee"
     borderopacity="1"
     inkscape:showpageshadow="0"
     inkscape:pageopacity="0"
     inkscape:pagecheckerboard="0"
     inkscape:deskcolor="#505050"
     inkscape:zoom="10.6875"
     inkscape:cx="32"
     inkscape:cy="29.005848"
     inkscape:window-width="1920"
     inkscape:window-height="939"
     inkscape:window-x="0"
     inkscape:window-y="34"
     inkscape:window-maximized="1"
     inkscape:current-layer="_图层_1" /><!-- Generator: Adobe Illustrator 29.0.1, SVG Export Plug-In . SVG Version: 2.1.0 Build 192)  --><defs
     id="defs6"><style
       id="style1">
      .st0 {
        fill-opacity: .5;
      }

      .st0, .st1, .st2, .st3, .st4, .st5, .st6, .st7 {
        fill: #fff;
      }

      .st8 {
        fill: #133c9a;
      }

      .st2, .st9 {
        display: none;
      }

      .st3 {
        fill-opacity: .2;
      }

      .st4 {
        fill-opacity: .9;
      }

      .st10 {
        fill: #3370ff;
      }

      .st11 {
        fill: url(#_未命名的渐变_3);
      }

      .st12 {
        fill: url(#_未命名的渐变);
      }

      .st5 {
        fill-opacity: .3;
      }

      .st6 {
        fill-opacity: 0;
      }

      .st7 {
        fill-opacity: .7;
      }

      .st13 {
        fill: #00d6b9;
      }

      .st14 {
        fill: url(#_未命名的渐变_2);
      }
    </style><radialGradient
       id="_未命名的渐变"
       data-name="未命名的渐变"
       cx="123.9"
       cy="-40.2"
       fx="123.9"
       fy="-40.2"
       r="59.4"
       gradientTransform="translate(-26.8 25.5) scale(.6 -.7)"
       gradientUnits="userSpaceOnUse"><stop
         offset="0"
         stop-color="#db202e"
         id="stop1" /><stop
         offset="1"
         stop-color="#e01b24"
         id="stop2" /></radialGradient><radialGradient
       id="_未命名的渐变_2"
       data-name="未命名的渐变 2"
       cx="67.6"
       cy="26.8"
       fx="67.6"
       fy="26.8"
       r="105.2"
       gradientTransform="translate(-26.6 25.3) scale(.6 -.7)"
       gradientUnits="userSpaceOnUse"><stop
         offset="0"
         stop-color="#ffb648"
         id="stop3" /><stop
         offset="1"
         stop-color="#ff7800"
         stop-opacity="0"
         id="stop4" /></radialGradient><radialGradient
       id="_未命名的渐变_3"
       data-name="未命名的渐变 3"
       cx="61.7"
       cy="18.6"
       fx="61.7"
       fy="18.6"
       r="68"
       gradientTransform="translate(-26.8 25.8) scale(.6 -.7)"
       gradientUnits="userSpaceOnUse"><stop
         offset="0"
         stop-color="#c64600"
         id="stop5" /><stop
         offset="1"
         stop-color="#a51d2d"
         id="stop6" /></radialGradient></defs><path
     class="st1"
     d="M47.5,64.1H13.8c-7.6,0-13.8-6.3-13.8-13.8V13.7C0,6.2,6.2,0,13.7,0h36.6c7.5,0,13.7,6.2,13.7,13.7v36.6c0,7.5-6.2,13.7-13.7,13.7h-2.9.1Z"
     id="path6"
     style="fill:#f2f2f2;fill-opacity:1" /><g
     id="g26"
     transform="matrix(0.96825416,0,0,0.85718683,0.40751218,2.3110188)"><path
       style="opacity:0.2"
       d="M 59.935,58.2 45.967,7.8 C 45.553,6.3054 44.721,5 43.174,5 H 20.826 c -1.548,0 -2.38,1.3054 -2.794,2.8 L 4.0644,58.2 C 3.6502,59.695 5.3103,61 6.858,61 h 50.284 c 1.548,0 3.208,-1.305 2.794,-2.8 z"
       id="path1" /><path
       style="fill:#ed333b"
       d="M 59.935,57.2 45.967,6.8 C 45.553,5.3054 44.721,4 43.174,4 H 20.826 c -1.548,0 -2.38,1.3054 -2.794,2.8 L 4.0644,57.2 C 3.6502,58.695 5.3103,60 6.858,60 h 50.284 c 1.548,0 3.208,-1.305 2.794,-2.8 z"
       id="path2" /><path
       style="opacity:0.2"
       d="M 22,9 H 43 L 54,50 H 10 Z"
       id="path3" /><path
       style="fill:#f2f2f2"
       d="M 22,8 H 43 L 54,49 H 10 Z"
       id="path4" /><path
       style="fill:#c0bfbc"
       d="m 31,14 v 2 h 2 v -2 z m 0,3 v 2 h 2 v -2 z m 0,6 v 2 h 2 v -2 z m 0,3 v 2 h 2 v -2 z m 0,6 v 2 h 2 v -2 z m 0,3 v 2 h 2 v -2 z"
       id="path5" /><path
       style="fill:#939296"
       d="m 30,11 v 2 h 4 v -2 z m 0,9 v 2 h 4 v -2 z m 0,9 v 2 h 4 v -2 z m 0,9 v 2 h 4 v -2 z"
       id="path6-2" /><path
       style="opacity:0.2;fill:#ffffff"
       d="M 20.826172,4 C 19.278533,4 18.44545,5.3061811 18.03125,6.8007812 L 4.0644531,57.199219 c -0.09046,0.326402 -0.06705,0.640771 0.017578,0.9375 L 18.03125,7.8007812 C 18.44545,6.3061811 19.278533,5 20.826172,5 h 22.347656 c 1.547679,0 2.378748,1.3061811 2.792969,2.8007812 L 59.917969,58.136719 c 0.08463,-0.296729 0.108034,-0.611098 0.01758,-0.9375 L 45.966797,6.8007812 C 45.552576,5.3061811 44.721507,4 43.173828,4 Z"
       id="path7" /><circle
       style="opacity:0.2"
       cx="32"
       cy="49"
       r="8"
       id="circle7" /><circle
       style="fill:#ffffff"
       cx="32"
       cy="48"
       r="8"
       id="circle8" /><rect
       style="opacity:0.2"
       width="5.994"
       height="41.955002"
       x="49.669998"
       y="-11.63"
       rx="2.8829999"
       ry="3.2579999"
       transform="rotate(30)"
       id="rect8" /><rect
       style="fill:#77767b"
       width="5.994"
       height="41.955002"
       x="48.669998"
       y="-13.37"
       rx="2.8829999"
       ry="3.2579999"
       transform="rotate(30)"
       id="rect9" /></g></svg>

<svg xmlns="http://www.w3.org/2000/svg" width="64" height="64" version="1.1">
 <path style="opacity:0.2" d="M 59.935,58.2 45.967,7.8 C 45.553,6.3054 44.721,5 43.174,5 H 20.826 C 19.278,5 18.446,6.3054 18.032,7.8 L 4.0644,58.2 C 3.6502,59.695 5.3103,61 6.858,61 H 57.142 C 58.69,61 60.35,59.695 59.936,58.2 Z"/>
 <path style="fill:#ed333b" d="M 59.935,57.2 45.967,6.8 C 45.553,5.3054 44.721,4 43.174,4 H 20.826 C 19.278,4 18.446,5.3054 18.032,6.8 L 4.0644,57.2 C 3.6502,58.695 5.3103,60 6.858,60 H 57.142 C 58.69,60 60.35,58.695 59.936,57.2 Z"/>
 <path style="opacity:0.2" d="M 22,9 H 43 L 54,50 H 10 Z"/>
 <path style="fill:#f2f2f2" d="M 22,8 H 43 L 54,49 H 10 Z"/>
 <path style="fill:#c0bfbc" d="M 31 14 L 31 16 L 33 16 L 33 14 L 31 14 z M 31 17 L 31 19 L 33 19 L 33 17 L 31 17 z M 31 23 L 31 25 L 33 25 L 33 23 L 31 23 z M 31 26 L 31 28 L 33 28 L 33 26 L 31 26 z M 31 32 L 31 34 L 33 34 L 33 32 L 31 32 z M 31 35 L 31 37 L 33 37 L 33 35 L 31 35 z"/>
 <path style="fill:#939296" d="M 30,11 V 13 H 34 V 11 Z M 30,20 V 22 H 34 V 20 Z M 30,29 V 31 H 34 V 29 Z M 30,38 V 40 H 34 V 38 Z"/>
 <path style="fill:#ffffff;opacity:0.2" d="M 20.826172 4 C 19.278533 4 18.44545 5.3061811 18.03125 6.8007812 L 4.0644531 57.199219 C 3.9739927 57.525621 3.9974035 57.83999 4.0820312 58.136719 L 18.03125 7.8007812 C 18.44545 6.3061811 19.278533 5 20.826172 5 L 43.173828 5 C 44.721507 5 45.552576 6.3061811 45.966797 7.8007812 L 59.917969 58.136719 C 60.0026 57.83999 60.026003 57.525621 59.935547 57.199219 L 45.966797 6.8007812 C 45.552576 5.3061811 44.721507 4 43.173828 4 L 20.826172 4 z"/>
 <circle style="opacity:0.2" cx="32" cy="49" r="8"/>
 <circle style="fill:#ffffff" cx="32" cy="48" r="8"/>
 <rect style="opacity:0.2" width="5.994" height="41.955" x="49.67" y="-11.63" rx="2.883" ry="3.258" transform="matrix(0.86602541,0.5,-0.5,0.86602541,0,0)"/>
 <rect style="fill:#77767b" width="5.994" height="41.955" x="48.67" y="-13.37" rx="2.883" ry="3.258" transform="rotate(30)"/>
</svg>
